actions/24/view-list-compact.svg

<?xml version="1.0" encoding="UTF-8"?>
<svg id="a" width="24" height="24" version="1.1" xmlns="http://www.w3.org/2000/svg" xmlns:cc="http://creativecommons.org/ns#" xmlns:dc="http://purl.org/dc/elements/1.1/" xmlns:rdf="http://www.w3.org/1999/02/22-rdf-syntax-ns#">
	<metadata id="d">
		<rdf:RDF>
			<cc:Work rdf:about="">
				<dc:format>image/svg+xml</dc:format>
				<dc:type rdf:resource="http://purl.org/dc/dcmitype/StillImage"/>
				<dc:title/>
			</cc:Work>
		</rdf:RDF>
	</metadata>
	<defs id="f">
		<style id="current-color-scheme" type="text/css">.ColorScheme-Text {color:#090d11;}.ColorScheme-Background{color:#ffffff;}</style>
	</defs>
	<path id="b" d="m3 5c-0.554 0-1 0.446-1 1s0.446 1 1 1 1-0.446 1-1-0.446-1-1-1zm3 0c-0.554 0-1 0.446-1 1s0.446 1 1 1h4c0.554 0 1-0.446 1-1s-0.446-1-1-1h-4zm8 0c-0.554 0-1 0.446-1 1s0.446 1 1 1 1-0.446 1-1-0.446-1-1-1zm3 0c-0.554 0-1 0.446-1 1s0.446 1 1 1h4c0.554 0 1-0.446 1-1s-0.446-1-1-1h-4zm-14 6c-0.554 0-1 0.446-1 1s0.446 1 1 1 1-0.446 1-1-0.446-1-1-1zm3 0c-0.554 0-1 0.446-1 1s0.446 1 1 1h4c0.554 0 1-0.446 1-1s-0.446-1-1-1h-4zm8 0c-0.554 0-1 0.446-1 1s0.446 1 1 1 1-0.446 1-1-0.446-1-1-1zm3 0c-0.554 0-1 0.446-1 1s0.446 1 1 1h4c0.554 0 1-0.446 1-1s-0.446-1-1-1h-4zm-14 6c-0.554 0-1 0.446-1 1s0.446 1 1 1 1-0.446 1-1-0.446-1-1-1zm3 0c-0.554 0-1 0.446-1 1s0.446 1 1 1h4c0.554 0 1-0.446 1-1s-0.446-1-1-1h-4z" style="fill-opacity:.75;fill:currentColor" class="ColorScheme-Text"/>
	<path id="c" d="m2.5 4c-0.277 0-0.5 0.223-0.5 0.5s0.223 0.5 0.5 0.5h1c0.277 0 0.5-0.223 0.5-0.5s-0.223-0.5-0.5-0.5h-1zm3 0c-0.277 0-0.5 0.223-0.5 0.5s0.223 0.5 0.5 0.5h5c0.277 0 0.5-0.223 0.5-0.5s-0.223-0.5-0.5-0.5h-5zm8 0c-0.277 0-0.5 0.223-0.5 0.5s0.223 0.5 0.5 0.5h1c0.277 0 0.5-0.223 0.5-0.5s-0.223-0.5-0.5-0.5h-1zm3 0c-0.277 0-0.5 0.223-0.5 0.5s0.223 0.5 0.5 0.5h5c0.277 0 0.5-0.223 0.5-0.5s-0.223-0.5-0.5-0.5h-5zm-14 6c-0.277 0-0.5 0.223-0.5 0.5s0.223 0.5 0.5 0.5h1c0.277 0 0.5-0.223 0.5-0.5s-0.223-0.5-0.5-0.5h-1zm3 0c-0.277 0-0.5 0.223-0.5 0.5s0.223 0.5 0.5 0.5h5c0.277 0 0.5-0.223 0.5-0.5s-0.223-0.5-0.5-0.5h-5zm8 0c-0.277 0-0.5 0.223-0.5 0.5s0.223 0.5 0.5 0.5h1c0.277 0 0.5-0.223 0.5-0.5s-0.223-0.5-0.5-0.5h-1zm3 0c-0.277 0-0.5 0.223-0.5 0.5s0.223 0.5 0.5 0.5h5c0.277 0 0.5-0.223 0.5-0.5s-0.223-0.5-0.5-0.5h-5zm-14 6c-0.277 0-0.5 0.223-0.5 0.5s0.223 0.5 0.5 0.5h1c0.277 0 0.5-0.223 0.5-0.5s-0.223-0.5-0.5-0.5h-1zm3 0c-0.277 0-0.5 0.223-0.5 0.5s0.223 0.5 0.5 0.5h5c0.277 0 0.5-0.223 0.5-0.5s-0.223-0.5-0.5-0.5h-5z" style="fill-opacity:.5;fill:currentColor" class="ColorScheme-Background"/>
</svg>

<?xml version="1.0" encoding="UTF-8" standalone="no"?>
<!-- Created with Inkscape (http://www.inkscape.org/) -->

<svg
   xmlns:dc="http://purl.org/dc/elements/1.1/"
   xmlns:cc="http://creativecommons.org/ns#"
   xmlns:rdf="http://www.w3.org/1999/02/22-rdf-syntax-ns#"
   xmlns:svg="http://www.w3.org/2000/svg"
   xmlns="http://www.w3.org/2000/svg"
   xmlns:sodipodi="http://sodipodi.sourceforge.net/DTD/sodipodi-0.dtd"
   xmlns:inkscape="http://www.inkscape.org/namespaces/inkscape"
   width="24"
   height="24"
   id="svg13094"
   version="1.1"
   inkscape:version="0.48.3.1 r9886"
   sodipodi:docname="view-list-compact.svg">
  <sodipodi:namedview
     id="base"
     pagecolor="#ffffff"
     bordercolor="#666666"
     borderopacity="1.0"
     inkscape:pageopacity="0.0"
     inkscape:pageshadow="2"
     inkscape:zoom="32.000001"
     inkscape:cx="10.710538"
     inkscape:cy="11.362277"
     inkscape:document-units="px"
     inkscape:current-layer="svg13094"
     showgrid="true"
     inkscape:snap-bbox="true"
     inkscape:bbox-paths="true"
     inkscape:bbox-nodes="true"
     inkscape:snap-bbox-edge-midpoints="true"
     inkscape:snap-bbox-midpoints="true"
     inkscape:object-paths="true"
     inkscape:snap-intersection-paths="true"
     inkscape:object-nodes="true"
     inkscape:snap-smooth-nodes="true"
     inkscape:snap-midpoints="true"
     inkscape:snap-object-midpoints="true"
     inkscape:snap-center="true"
     showguides="true"
     inkscape:guide-bbox="true"
     inkscape:window-width="1920"
     inkscape:window-height="1023"
     inkscape:window-x="-10"
     inkscape:window-y="35"
     inkscape:window-maximized="1"
     inkscape:snap-global="true"
     fit-margin-top="0"
     fit-margin-left="0"
     fit-margin-right="0"
     fit-margin-bottom="0"
     showborder="true"
     inkscape:showpageshadow="false">
    <inkscape:grid
       type="xygrid"
       id="grid3075"
       empspacing="5"
       visible="true"
       enabled="true"
       snapvisiblegridlinesonly="true"
       originx="1.6362304e-08px"
       originy="4.9999976px" />
  </sodipodi:namedview>
  <defs
     id="defs13096" />
  <metadata
     id="metadata13099">
    <rdf:RDF>
      <cc:Work
         rdf:about="">
        <dc:format>image/svg+xml</dc:format>
        <dc:type
           rdf:resource="http://purl.org/dc/dcmitype/StillImage" />
        <dc:title />
      </cc:Work>
    </rdf:RDF>
  </metadata>
  <path
     style="color:#000000;fill:#EDEFF3;fill-opacity:0.758;fill-rule:nonzero;stroke:none;stroke-width:2;marker:none;visibility:visible;display:inline;overflow:visible;enable-background:accumulate"
     d="M 3 5 C 2.446 5 2 5.446 2 6 C 2 6.554 2.446 7 3 7 C 3.554 7 4 6.554 4 6 C 4 5.446 3.554 5 3 5 z M 6 5 C 5.446 5 5 5.446 5 6 C 5 6.554 5.446 7 6 7 L 10 7 C 10.554 7 11 6.554 11 6 C 11 5.446 10.554 5 10 5 L 6 5 z M 14 5 C 13.446 5 13 5.446 13 6 C 13 6.554 13.446 7 14 7 C 14.554 7 15 6.554 15 6 C 15 5.446 14.554 5 14 5 z M 17 5 C 16.446 5 16 5.446 16 6 C 16 6.554 16.446 7 17 7 L 21 7 C 21.554 7 22 6.554 22 6 C 22 5.446 21.554 5 21 5 L 17 5 z M 3 11 C 2.446 11 2 11.446 2 12 C 2 12.554 2.446 13 3 13 C 3.554 13 4 12.554 4 12 C 4 11.446 3.554 11 3 11 z M 6 11 C 5.446 11 5 11.446 5 12 C 5 12.554 5.446 13 6 13 L 10 13 C 10.554 13 11 12.554 11 12 C 11 11.446 10.554 11 10 11 L 6 11 z M 14 11 C 13.446 11 13 11.446 13 12 C 13 12.554 13.446 13 14 13 C 14.554 13 15 12.554 15 12 C 15 11.446 14.554 11 14 11 z M 17 11 C 16.446 11 16 11.446 16 12 C 16 12.554 16.446 13 17 13 L 21 13 C 21.554 13 22 12.554 22 12 C 22 11.446 21.554 11 21 11 L 17 11 z M 3 17 C 2.446 17 2 17.446 2 18 C 2 18.554 2.446 19 3 19 C 3.554 19 4 18.554 4 18 C 4 17.446 3.554 17 3 17 z M 6 17 C 5.446 17 5 17.446 5 18 C 5 18.554 5.446 19 6 19 L 10 19 C 10.554 19 11 18.554 11 18 C 11 17.446 10.554 17 10 17 L 6 17 z "
     id="path3006" />
  <path
     style="color:#000000;fill:#485462;fill-opacity:0.7;fill-rule:nonzero;stroke:none;stroke-width:2;marker:none;visibility:visible;display:inline;overflow:visible;enable-background:accumulate"
     d="M 2,4 2,5 4,5 4,4 z m 3,0 0,1 6,0 0,-1 z m 8,0 0,1 2,0 0,-1 z m 3,0 0,1 6,0 0,-1 z M 2,9 2,10 4,10 4,9 z m 3,0 0,1 6,0 0,-1 z m 8,0 0,1 2,0 0,-1 z m 3,0 0,1 6,0 0,-1 z m -14,5 0,1 2,0 0,-1 z m 3,0 0,1 6,0 0,-1 z m -3,5 0,1 2,0 0,-1 z m 3,0 0,1 6,0 0,-1 z"
     id="path2996"
     inkscape:connector-curvature="0"
     sodipodi:nodetypes="cccccccccccccccccccccccccccccccccccccccccccccccccccccccccccc" />
</svg>
